packages/bezier-icons/icons/heading-2.svg

<svg width="24" height="24" viewBox="0 0 24 24" fill="none" xmlns="http://www.w3.org/2000/svg">
<path fill-rule="evenodd" clip-rule="evenodd" d="M4.5 5C4.22386 5 4 5.22386 4 5.5V17.5C4 17.7761 4.22386 18 4.5 18H6C6.27614 18 6.5 17.7761 6.5 17.5V13H11.5V17.5C11.5 17.7761 11.7239 18 12 18H13.5C13.7761 18 14 17.7761 14 17.5V5.5C14 5.22386 13.7761 5 13.5 5H12C11.7239 5 11.5 5.22386 11.5 5.5V10.5H6.5V5.5C6.5 5.22386 6.27614 5 6 5H4.5ZM20.8933 12.4483C19.6901 10.9014 17.3069 11.0518 16.3078 12.7378L15.8946 13.4351C15.7538 13.6726 15.8323 13.9793 16.0698 14.1201L16.9301 14.6299C17.1677 14.7707 17.4744 14.6922 17.6152 14.4547L18.0284 13.7574C18.3086 13.2845 18.9771 13.2423 19.3146 13.6762C19.5428 13.9696 19.5322 14.3834 19.2891 14.6647L15.958 18.5192C15.1182 19.491 15.8085 21 17.0929 21H21C21.2761 21 21.5 20.7761 21.5 20.5V19.5C21.5 19.2239 21.2761 19 21 19H18.1859L20.8023 15.9724C21.6689 14.9696 21.707 13.4945 20.8933 12.4483Z" fill="#313234"/>
</svg>

<svg xmlns="http://www.w3.org/2000/svg" width="24" height="24" fill="none" viewBox="0 0 24 24"><path fill="#313234" fill-rule="evenodd" d="M4.5 5a.5.5 0 0 0-.5.5v12a.5.5 0 0 0 .5.5H6a.5.5 0 0 0 .5-.5V13h5v4.5a.5.5 0 0 0 .5.5h1.5a.5.5 0 0 0 .5-.5v-12a.5.5 0 0 0-.5-.5H12a.5.5 0 0 0-.5.5v5h-5v-5A.5.5 0 0 0 6 5zm16.393 7.448c-1.203-1.547-3.586-1.396-4.585.29l-.413.697a.5.5 0 0 0 .175.685l.86.51a.5.5 0 0 0 .685-.175l.413-.698a.78.78 0 1 1 1.261.908l-3.331 3.854c-.84.972-.15 2.481 1.135 2.481H21a.5.5 0 0 0 .5-.5v-1a.5.5 0 0 0-.5-.5h-2.814l2.616-3.028a2.78 2.78 0 0 0 .091-3.524" clip-rule="evenodd"/></svg>
